modules/themify-icons/icons/vector.svg

<?xml version="1.0" encoding="utf-8"?>
<!-- Generated by IcoMoon.io -->
<!DOCTYPE svg PUBLIC "-//W3C//DTD SVG 1.1//EN" "http://www.w3.org/Graphics/SVG/1.1/DTD/svg11.dtd">
<svg version="1.1" xmlns="http://www.w3.org/2000/svg" xmlns:xlink="http://www.w3.org/1999/xlink" width="17" height="17" viewBox="0 0 17 17">
<g>
</g>
	<path d="M14.94 6c-1.032-0.647-2.214-1-3.44-1-0.778 0-1.529 0.144-2.239 0.404l2.569-2.569c0.203 0.102 0.428 0.165 0.67 0.165 0.827 0 1.5-0.673 1.5-1.5s-0.673-1.5-1.5-1.5-1.5 0.673-1.5 1.5c0 0.22 0.050 0.428 0.136 0.616l-3.91 3.909c-0.081-0.014-0.164-0.025-0.25-0.025-0.827 0-1.5 0.673-1.5 1.5 0 0.085 0.011 0.168 0.025 0.25l-3.386 3.386c-0.188-0.086-0.395-0.136-0.615-0.136-0.827 0-1.5 0.673-1.5 1.5s0.673 1.5 1.5 1.5 1.5-0.673 1.5-1.5c0-0.242-0.063-0.467-0.165-0.669l2.57-2.57c-0.262 0.715-0.405 1.473-0.405 2.239 0 1.469 0.612 2.735 1 3.391v2.109h3v-3h-2.336c-0.418-0.826-0.664-1.713-0.664-2.5 0-0.887 0.22-1.764 0.628-2.545 0.113 0.027 0.228 0.045 0.348 0.045 0.827 0 1.5-0.673 1.5-1.5 0-0.18-0.037-0.35-0.095-0.51 1.644-1.131 3.847-1.268 5.619-0.373v2.383h3v-3h-2.060zM12.5 1c0.276 0 0.5 0.224 0.5 0.5s-0.224 0.5-0.5 0.5-0.5-0.224-0.5-0.5 0.224-0.5 0.5-0.5zM1.5 13c-0.276 0-0.5-0.224-0.5-0.5s0.224-0.5 0.5-0.5 0.5 0.224 0.5 0.5-0.224 0.5-0.5 0.5zM7 15h1v1h-1v-1zM6.976 8c-0.276 0-0.5-0.224-0.5-0.5s0.224-0.5 0.5-0.5 0.5 0.224 0.5 0.5-0.224 0.5-0.5 0.5zM16 8h-1v-1h1v1z" fill="#000000" />
</svg>

<svg xmlns="http://www.w3.org/2000/svg" width="17" height="17"><path d="M14.94 6a6.46 6.46 0 0 0-3.44-1 6.49 6.49 0 0 0-2.239.404l2.569-2.569c.203.102.428.165.67.165.827 0 1.5-.673 1.5-1.5S13.327 0 12.5 0 11 .673 11 1.5c0 .22.05.428.136.616l-3.91 3.909A1.46 1.46 0 0 0 6.976 6c-.827 0-1.5.673-1.5 1.5 0 .085.011.168.025.25l-3.386 3.386A1.472 1.472 0 0 0 1.5 11c-.827 0-1.5.673-1.5 1.5S.673 14 1.5 14 3 13.327 3 12.5c0-.242-.063-.467-.165-.669l2.57-2.57A6.516 6.516 0 0 0 5 11.5c0 1.469.612 2.735 1 3.391V17h3v-3H6.664C6.246 13.174 6 12.287 6 11.5c0-.887.22-1.764.628-2.545.113.027.228.045.348.045.827 0 1.5-.673 1.5-1.5 0-.18-.037-.35-.095-.51 1.644-1.131 3.847-1.268 5.619-.373V9h3V6h-2.06zM12.5 1a.5.5 0 1 1 0 1 .5.5 0 0 1 0-1zm-11 12a.5.5 0 1 1 0-1 .5.5 0 0 1 0 1zM7 15h1v1H7v-1zm-.024-7a.5.5 0 1 1 0-1 .5.5 0 0 1 0 1zM16 8h-1V7h1v1z"/></svg>
